src/lib/packages/icons/src/assets/filled/chat-text-notification.svg

<svg width="24" height="24" viewBox="0 0 24 24" fill="none" xmlns="http://www.w3.org/2000/svg">
<path d="M19.931 8.36903C19.583 8.47203 19.213 8.51203 18.827 8.49403C17.064 8.41603 15.582 6.93302 15.504 5.16902C15.487 4.78402 15.526 4.41403 15.629 4.06703C15.673 3.91803 15.6121 3.75804 15.4691 3.69704C13.9521 3.05504 12.216 2.82204 10.398 3.13704C7.18804 3.69204 4.4762 6.03503 3.4642 9.13203C2.6962 11.482 2.93312 13.821 3.83212 15.756C4.04212 16.196 4.04218 16.706 3.89218 17.176L3.05209 19.675C2.78809 20.46 3.53611 21.209 4.32211 20.945L6.82211 20.105C7.29211 19.955 7.80203 19.955 8.24203 20.165C10.176 21.064 12.5122 21.301 14.8612 20.535C17.9592 19.524 20.3032 16.813 20.8602 13.602C21.1752 11.784 20.9431 10.046 20.3001 8.52803C20.2401 8.38603 20.08 8.32503 19.931 8.36903ZM13.0001 14.75H8.00009C7.58609 14.75 7.25009 14.414 7.25009 14C7.25009 13.586 7.58609 13.25 8.00009 13.25H13.0001C13.4141 13.25 13.7501 13.586 13.7501 14C13.7501 14.414 13.4141 14.75 13.0001 14.75ZM16.0001 10.75H8.00009C7.58609 10.75 7.25009 10.414 7.25009 10C7.25009 9.58601 7.58609 9.25001 8.00009 9.25001H16.0001C16.4141 9.25001 16.7501 9.58601 16.7501 10C16.7501 10.414 16.4141 10.75 16.0001 10.75ZM17.0001 5.00001C17.0001 3.89501 17.8961 3.00001 19.0001 3.00001C20.1041 3.00001 21.0001 3.89501 21.0001 5.00001C21.0001 6.10501 20.1041 7.00001 19.0001 7.00001C17.8961 7.00001 17.0001 6.10501 17.0001 5.00001Z" fill="currentColor"/>
</svg>

<svg xmlns="http://www.w3.org/2000/svg" width="24" height="24" fill="none"><path fill="currentColor" d="M19.931 8.369a3.327 3.327 0 0 1-1.104.125c-1.763-.078-3.245-1.561-3.323-3.325a3.342 3.342 0 0 1 .125-1.102c.044-.149-.017-.309-.16-.37-1.517-.642-3.253-.875-5.071-.56-3.21.555-5.922 2.898-6.934 5.995-.768 2.35-.53 4.689.368 6.624.21.44.21.95.06 1.42l-.84 2.499a1.003 1.003 0 0 0 1.27 1.27l2.5-.84c.47-.15.98-.15 1.42.06 1.934.899 4.27 1.136 6.62.37 3.097-1.011 5.441-3.722 5.998-6.933.315-1.818.083-3.556-.56-5.074-.06-.142-.22-.203-.369-.159Zm-6.93 6.381H8a.75.75 0 0 1 0-1.5h5a.75.75 0 0 1 0 1.5Zm3-4H8a.75.75 0 0 1 0-1.5h8a.75.75 0 0 1 0 1.5ZM17 5a2 2 0 1 1 4 0 2 2 0 0 1-4 0Z"/></svg>
